X: 1
T: Montague May
C: David A. Kaynor May 1, 2021
%D:2021
R: jig
%S: s:3 B:32 b:14(6+4+4)
R: jig
Z: 2021 John Chambers <jc:trillian.mit.edu>
S: https://natunelist.net/montague-may/
M: 6/8
L: 1/8
K: C
  G |: "C"c2d cEF | G2E "(Am)"CEG |1,3 "(F)"c2d cBc | "G"d3 d2B :|2,4 "Dm"ABc "G"dcB | "C"c3 c2 :|
|: e | "F"f2g f2g | f2g agf | "C"e2g gae | g3 g2 ||
   e | "F"fed cBA | "C"G2E "Am"CEG | "Dm"ABc "G"dcsB | "C"c3 c2 :|
